images/icons/iconlockwhite.svg

<svg width="30" height="30" viewBox="0 0 30 30" fill="none" xmlns="http://www.w3.org/2000/svg">
<path fill-rule="evenodd" clip-rule="evenodd" d="M23.1254 14.0625C21.5348 14.0625 20.161 15.1751 19.8304 16.7309L19.8027 16.8614C19.7178 17.261 19.7028 17.6724 19.7584 18.0771L19.9497 19.468C19.8782 19.4766 19.8068 19.4856 19.7354 19.4949C18.6358 19.6377 17.8129 20.5744 17.8129 21.6832V24.5668C17.8129 25.6757 18.6358 26.6123 19.7354 26.7551C21.986 27.0474 24.2649 27.0474 26.5154 26.7551C27.615 26.6123 28.4379 25.6757 28.4379 24.5668V21.6832C28.4379 20.5744 27.615 19.6377 26.5154 19.4949C26.444 19.4856 26.3726 19.4766 26.3011 19.468L26.4924 18.0771C26.548 17.6724 26.5331 17.261 26.4481 16.8614L26.4204 16.7309C26.0898 15.1751 24.716 14.0625 23.1254 14.0625ZM24.4305 19.3081L24.6348 17.8217C24.661 17.6318 24.6539 17.4387 24.6141 17.2511L24.5864 17.1206C24.4398 16.4308 23.8306 15.9375 23.1254 15.9375C22.4202 15.9375 21.811 16.4308 21.6645 17.1206L21.6367 17.2511C21.5969 17.4387 21.5898 17.6318 21.616 17.8217L21.8203 19.3081C22.6898 19.2649 23.561 19.2649 24.4305 19.3081Z" fill="white"/>
<path d="M25.865 12.4762C25.897 12.6861 25.6641 12.8378 25.4742 12.7426C24.7633 12.386 23.9637 12.1875 23.1254 12.1875C20.6495 12.1875 18.511 13.9193 17.9964 16.3411L17.9686 16.4717C17.8697 16.9372 17.8328 17.413 17.8583 17.887C17.8688 18.0807 17.7775 18.2664 17.6206 18.3805C16.5941 19.1271 15.9379 20.3365 15.9379 21.6832V23.4567C15.9379 23.6622 15.7724 23.8296 15.5668 23.8309C13.2301 23.8455 10.893 23.7694 8.56074 23.6026L6.66823 23.4672C5.45759 23.3806 4.45903 22.4856 4.24088 21.2916C3.70631 18.3659 3.6148 15.3764 3.9694 12.4235L4.31001 9.58707C4.47442 8.2179 5.63596 7.1875 7.01496 7.1875H9.87942C11.1198 7.1875 12.1254 8.19305 12.1254 9.43346C12.1254 9.47443 12.1586 9.50765 12.1996 9.50765H23.0906C24.4164 9.50765 25.5457 10.471 25.7547 11.7802L25.8348 12.282C25.8451 12.3467 25.8552 12.4114 25.865 12.4762Z" fill="white"/>
</svg>

<svg width="30" height="30" fill="none" xmlns="http://www.w3.org/2000/svg"><path fill-rule="evenodd" clip-rule="evenodd" d="M23.125 14.063a3.369 3.369 0 0 0-3.295 2.668l-.027.13c-.085.4-.1.811-.045 1.216l.192 1.391-.215.027a2.207 2.207 0 0 0-1.922 2.188v2.884c0 1.109.823 2.045 1.922 2.188 2.251.292 4.53.292 6.78 0a2.207 2.207 0 0 0 1.923-2.188v-2.884a2.207 2.207 0 0 0-1.923-2.188c-.071-.01-.142-.018-.214-.027l.191-1.39c.056-.406.041-.817-.044-1.217l-.028-.13a3.369 3.369 0 0 0-3.295-2.669Zm1.305 5.245.205-1.486c.026-.19.019-.383-.02-.57l-.029-.131a1.494 1.494 0 0 0-2.921 0l-.028.13c-.04.188-.047.38-.021.57l.204 1.487c.87-.043 1.741-.043 2.61 0Z" fill="#fff"/><path d="M25.865 12.476c.032.21-.2.362-.39.267a5.243 5.243 0 0 0-7.478 3.599l-.028.13a5.411 5.411 0 0 0-.11 1.415c.01.194-.082.38-.238.494a4.08 4.08 0 0 0-1.683 3.302v1.774a.374.374 0 0 1-.371.374 90.302 90.302 0 0 1-7.006-.228l-1.893-.136a2.66 2.66 0 0 1-2.427-2.175 29.663 29.663 0 0 1-.272-8.869l.341-2.836a2.724 2.724 0 0 1 2.705-2.4h2.864a2.246 2.246 0 0 1 2.246 2.246c0 .041.034.075.075.075h10.89c1.326 0 2.456.963 2.665 2.272l.08.502.03.194Z" fill="#fff"/></svg>
